!!!!SEGMENT: pl-wtm--r-1420--001_stefani-jozef--mazur.krn
!!!cenid: 18xx:2424
!!!COM: Stefani, Józef
!!!COM-rismID: pe30024097
!!!CDT: 1800/04/16-1876/03/19
!!!CNT: Polish
!!!OTL: Mazur
!!!PDT:
!!!AGN: Secular; Mazurka
!!!SMS-siglum: PL-Wtm
!!!SMS-shelfmark: R 1420
!!!SMS-shelfwork: 001 W
!!!SMS-variant:
!!!SMS-altvar:
!!!NIFC-rismSourceID: 1001116013
!!!NIFC-rismChildID: 1001116016
!!!NIFC-islandoraID: pl-wtm:25519
!!!URL-pdf-islandora: https://repozytorium.nifc.pl/islandora/object/pl-wtm%3A25519/datastream/PDF/view
!!!URL-scan: https://polish.musicsources.pl/pl/lokalizacje/galeria/rekopisy/6242 @EN{Scan on Polish Music Sources Website} @PL{Skany w portalu Dziedzictwo Muzyki Polskiej w otwartym dostępie}
!!!ONB-nifc: UWAGA: w zbiorze 1. Mazur, 2. Valc (od 3 systemu), 3. Valc (od 6 systemu), 4. Mazur
!!!OMD: Mazur
!!!AIN: 1 forte
!!!key:
**kern	**kern
*part1	*part1
*staff2	*staff1
*Iforte	*Iempty
*I"fortepian	*
*>[A,A,B,B,C,C]	*>[A,A,B,B,C,C]
*clefF4	*clefG2
*k[b-e-a-]	*k[b-e-a-]
*E-:	*E-:
*M3/8	*M3/8
=1	=1
*>A	*>A
*tremolo	*
8EE-/ 8E-	16.e-/LL 16.g
.	32f/JJk 32a-
8E-\L 8G 8B-	8e-/L 8g
8E-\J 8G 8B-	8f/J 8a-
=2	=2
8EE-/ 8E-	16gt/LL 16b-
.	16an/JJ
8E-\L 8G 8B-	8cc/L
8E-\J 8G 8B-	8b-/J
=3	=3
8EE-/ 8E-	16g/LL 16b-
.	16ee-/JJ
8E-\L 8G 8B-	8g/L
8E-\J 8G 8B-	8a-X/J
=4	=4
8EE-/ 8E-	16gt/LL 16b-
.	16an/JJ
8E-\L 8G 8B-	8cc/L
8E-\J 8G 8B-	8b-/J
=5	=5
8EE-/ 8E-	16g/LL 16b-
.	16ee-/JJ
8E-\L 8G 8B-	8g/L
8E-\J 8G 8B-	8a-X/J
=6	=6
8EE-/ 8E-	16cc\LL
.	16b-\
8E-\L 8G 8B-	16a-\
.	16b-\
8E-\J 8G 8B-	16cc\
.	16dd\JJ
=7	=7
8EE-/ 8E-	16.ee-\LL
.	32ee-\JJk
8E-\L 8G 8B-	8g/L
8E-\J 8G 8B-	8a-/J
=8	=8
8EE-/ 8E-	8cc\
8E-\L 8G 8B-	4b-\
8E-\J 8G 8B-	.
=9	=9
8BB-/	8b-\
8F\L 8A- 8B-	4b-:\ 4dd: 4ff: 4aa-:
8F\J 8A- 8B-	.
*Xtremolo	*
=10	=10
8E-\L	16gg\LL
.	16ff\
8G\ 8B-	16ee-\
.	8qff/
.	16ee-\
8G\J 8B-	16dd\
.	16cc\JJ
=11	=11
8BB-/	8b-\L
*tremolo	*
8F\L 8A- 8B-	8cc\
8F\J 8A- 8B-	8dd\J
=12	=12
8EE-/ 8E-	8ee-\
8E-\L 8G 8B-	4g:\ 4b-: 4ee-: 4gg:
8E-\J 8G 8B-	.
=13	=13
8BB-/	8b-\
8F\L 8A- 8B-	4b-:\ 4dd: 4ff: 4aa-:
8F\J 8A- 8B-	.
=14	=14
8EE-/ 8E-	16gg\LL
.	16dd\
*	*Xbrackettup
!	!LO:TUP:a
!	!LO:TX:t=P:problem=klamra łukowa
8F\L 8A- 8B-	24ee-\
.	24ff\
.	24ee-\JJ
8F\J 8A- 8B-	16dd\LL
.	16cc\JJ
*Xtremolo	*
=15	=15
8BB-/	8b-\L
4F\ 4A- 4B-	8cc\
.	8dd\J
=16	=16
8E-\ 8G 8B-	8ff\
4EE-/ 4E-	4g\ 4b- 4ee-
=17:|!|:	=17:|!|:
*>B	*>B
8FF/ 8F	8f/
*tremolo	*
8F\L 8c 8e-	8.f\L 8.ff
8F\J 8c 8e-	.
.	16ee-\Jk
!!LO:PB:g=original
=18	=18
8BB-/	16.dd\LL
.	32cc\JJk
8F\L 8B- 8d	8b-\L
8F\J 8B- 8d	8bb-\J
=19	=19
8FF/ 8F	16.aan\LL
.	32ff\K
8F\L 8c 8e-	16.aa\
.	32eee-\K
8F\J 8c 8e-	16.fff\
.	32eee-\JJk
=20	=20
8BB-/	16.ddd\LL
.	32ccc\JJk
*	*8va
8F\L 8B- 8d	8bbb-\L
8F\J 8B- 8d	8bbb-\J
=21	=21
8FF/ 8F	4fff\
8F\L 8c 8e-	.
8F\J 8c 8e-	16.fff\LL 16.ffff
.	32eee-\JJk 32eeee-
=22	=22
8BB-/	16.ddd\LL 16.dddd
.	32ccc\JJk 32cccc
8F\L 8B- 8d	8.bb-\L 8.bbb-
8F\J 8B- 8d	.
.	16ddd\Jk 16dddd
*	*X8va
=23	=23
!	!LO:TX:a:t=loco
8FF/ 8F	16gg\LL 16ggg
.	16ff\ 16fff
8F\L 8c 8e-	16ee-\ 16eee-
.	16dd\ 16ddd
8F\J 8c 8e-	16ee-\ 16eee-
.	16an\JJ 16aan
*Xtremolo	*
=24	=24
8B-\ 8d	16ccc\LL
.	16bb-\JJ
4BB-/	4bb-\
=25:|!|:	=25:|!|:
*>C	*>C
8EE-/ 8E-	16.ee-\LL 16.gg
.	32ff\JJk 32aa-
*tremolo	*
8E-\L 8G 8B-	8gg\L 8bb-
8E-\J 8G 8B-	8dd\J
=26	=26
8AA-/ 8A-	16aa-\LL 16ccc
.	16gg\JJ 16bb-
8A-\L 8c 8e-	8ff\L 8aa-
8A-\J 8c 8e-	8ee-\J 8gg
=27	=27
8BB-/	16.dd\LL 16.ff
.	32ee-\JJk 32gg
8F\L 8A- 8B-	8ff\L 8aa-
8F\J 8A- 8B-	8dd\J 8ff
=28	=28
8EE-/ 8E-	16aa-\LL 16ccc
.	16gg\JJ 16bb-
8E-\L 8G 8B-	4gg\ 4bb-
8E-\J 8G 8B-	.
=29	=29
8EE-/ 8E-	16ee-\LL 16gg
.	16ff\JJ 16aa-
8E-\L 8G 8B-	8gg\L 8bb-
8E-\J 8G 8B-	8ee-\J
=30	=30
8AA-/ 8A-	8.ccc\L 8.eee-
8E-\L 8A- 8c	.
.	16bb-\L 16ddd
8E-\J 8A- 8c	16aa-\ 16ccc
.	16gg\JJ 16bb-
=31	=31
8BB-/	16ff\LL 16aa-
.	16ee-\ 16gg
8F\L 8A- 8B-	16dd\ 16ff
.	16aa-\ 16ccc
8F\J 8A- 8B-	16gg\ 16bb-
.	16f\JJ 16dd
*Xtremolo	*
=32	=32
8E-\ 8G	16a-\LL 16ff
.	16g\JJ 16ee-
4EE-/ 4E-	4g\ 4ee-
=:|!	=:|!
*-	*-
!!!system-decoration: {(s1,s2)}
!!!EED: Andrzej Borzym
!!!EEV: 2021-06-25
!!!ENC: Mateusz Solarz
!!!END: 2021-06-18
!!!YEC: Copyright 2022 Narodowy Instytut Fryderyka Chopina (https://polishscores.org)
!!!YEM: License CC-BY-4.0 (https://creativecommons.org/licenses/by/4.0)
